markets/RNDR.svg

<svg width="42" height="42" viewBox="0 0 42 42" fill="none" xmlns="http://www.w3.org/2000/svg">
<circle cx="21" cy="21" r="21" fill="black"/>
<g clip-path="url(#clip0_7698_9726)">
<g clip-path="url(#clip1_7698_9726)">
<path fill-rule="evenodd" clip-rule="evenodd" d="M21 0C32.592 0 42 9.408 42 21C42 32.592 32.592 42 21 42C9.408 42 0 32.592 0 21C0 9.408 9.408 0 21 0Z" fill="#CF1011"/>
<path fill-rule="evenodd" clip-rule="evenodd" d="M21.0001 16.0272C23.7385 16.0272 25.9729 18.2448 25.9729 21C25.9729 23.7384 23.7553 25.9728 21.0001 25.9728C18.2617 25.9728 16.0273 23.7552 16.0273 21C16.0273 18.2616 18.2449 16.0272 21.0001 16.0272Z" fill="white"/>
<path fill-rule="evenodd" clip-rule="evenodd" d="M21.1177 7.99678C22.6801 8.01358 24.2257 8.31598 25.6705 8.87038C27.1153 9.42478 28.4593 10.2312 29.6353 11.2728L29.6689 11.3064C32.3401 13.692 33.8017 16.9176 33.9865 20.2272C34.1881 23.5536 33.1129 26.9472 30.7441 29.6352L30.7105 29.6688C28.3249 32.34 25.0993 33.8016 21.7897 33.9864C18.4633 34.188 15.0697 33.1128 12.3817 30.744C9.69366 28.3584 8.21526 25.116 8.03046 21.7896C7.82886 18.4632 8.90406 15.0696 11.2729 12.3816L12.3985 13.3728C10.2985 15.7416 9.35766 18.7488 9.52566 21.6888C9.71046 24.6288 11.0041 27.5016 13.3729 29.6016C15.7417 31.7016 18.7489 32.6424 21.6889 32.4744C24.6289 32.2896 27.5017 30.996 29.6017 28.6272L29.6353 28.5936C31.7185 26.2248 32.6593 23.2344 32.4745 20.3112C32.2897 17.3712 30.9961 14.4984 28.6273 12.3984L28.5937 12.3648C27.5689 11.4576 26.3929 10.752 25.1329 10.2648C23.8561 9.77758 22.4953 9.50878 21.1177 9.49198L21.1345 7.97998L21.1177 7.99678Z" fill="white"/>
<path d="M13.6081 8.08081C14.5153 8.08081 15.3217 8.45041 15.9097 9.03841C16.4977 9.62641 16.8673 10.4496 16.8673 11.34C16.8673 12.2472 16.4977 13.0536 15.9097 13.6416C15.3217 14.2296 14.4985 14.5992 13.6081 14.5992C12.7009 14.5992 11.8945 14.2296 11.3065 13.6416C10.7185 13.0536 10.3489 12.2304 10.3489 11.34C10.3489 10.4328 10.7185 9.62641 11.3065 9.03841C11.8945 8.45041 12.7177 8.08081 13.6081 8.08081ZM14.8513 10.1136C14.5321 9.79441 14.0953 9.59281 13.6081 9.59281C13.1209 9.59281 12.6841 9.79441 12.3649 10.1136C12.0457 10.4328 11.8441 10.8696 11.8441 11.3568C11.8441 11.844 12.0457 12.2808 12.3649 12.6C12.6841 12.9192 13.1209 13.1208 13.6081 13.1208C14.0953 13.1208 14.5321 12.9192 14.8513 12.6C15.1705 12.2808 15.3721 11.844 15.3721 11.3568C15.3721 10.8696 15.1705 10.4328 14.8513 10.1136Z" fill="white"/>
</g>
</g>
<defs>
<clipPath id="clip0_7698_9726">
<rect width="42" height="42" fill="white"/>
</clipPath>
<clipPath id="clip1_7698_9726">
<rect width="42" height="42" fill="white"/>
</clipPath>
</defs>
</svg>

<svg width="42" height="42" viewBox="0 0 42 42" fill="none" xmlns="http://www.w3.org/2000/svg"><circle cx="21" cy="21" r="21" fill="#000"/><g clip-path="url(#clip0_7698_9726)"><g clip-path="url(#clip1_7698_9726)"><path fill-rule="evenodd" clip-rule="evenodd" d="M21 0c11.592 0 21 9.408 21 21s-9.408 21-21 21S0 32.592 0 21 9.408 0 21 0z" fill="#CF1011"/><path fill-rule="evenodd" clip-rule="evenodd" d="M21 16.027a4.972 4.972 0 110 9.946 4.972 4.972 0 110-9.946z" fill="#fff"/><path fill-rule="evenodd" clip-rule="evenodd" d="M21.118 7.997a13.125 13.125 0 018.517 3.276l.034.033a12.89 12.89 0 014.317 8.921 13.003 13.003 0 01-3.242 9.408l-.034.034a12.89 12.89 0 01-8.92 4.317 13.003 13.003 0 01-9.408-3.242A12.903 12.903 0 018.03 21.79a13.003 13.003 0 013.243-9.408l1.126.99a11.507 11.507 0 00-2.873 8.317 11.502 11.502 0 003.847 7.913 11.507 11.507 0 008.316 2.872 11.502 11.502 0 007.913-3.847l.033-.033a11.422 11.422 0 002.84-8.283 11.502 11.502 0 00-3.848-7.913l-.033-.033a11.445 11.445 0 00-3.461-2.1 11.677 11.677 0 00-4.015-.773l.017-1.512-.017.017z" fill="#fff"/><path d="M13.608 8.08c.907 0 1.714.37 2.302.958.588.588.957 1.412.957 2.302 0 .907-.37 1.714-.957 2.302a3.266 3.266 0 01-2.302.957c-.907 0-1.713-.37-2.302-.957a3.266 3.266 0 01-.957-2.302c0-.907.37-1.714.957-2.302a3.266 3.266 0 012.302-.957zm1.243 2.034a1.749 1.749 0 00-1.243-.521c-.487 0-.924.201-1.243.52a1.748 1.748 0 000 2.487 1.75 1.75 0 002.486 0c.32-.32.521-.756.521-1.243 0-.487-.201-.924-.52-1.243z" fill="#fff"/></g></g><defs><clipPath id="clip0_7698_9726"><path fill="#fff" d="M0 0h42v42H0z"/></clipPath><clipPath id="clip1_7698_9726"><path fill="#fff" d="M0 0h42v42H0z"/></clipPath></defs></svg>
